X: 4538
T: Borthwick, The
R: reel
M: 4/4
K: Amajor
E2|A2AB ABcd|efga gedB|A2BG dGBG|ABcd cBAF|
EAAG ABcd|efga gedB|Aaaf gede|c2A2 A2:|
fg|afge afge|afgf edBc|dBcA dgcB|ABcd cBAF|
EAAG ABcd|efga gedB|Aaaf gede|c2A2 A2:|

